images/close.svg

<svg width="20" height="20" viewBox="0 0 20 20" fill="none" xmlns="http://www.w3.org/2000/svg">
<g clip-path="url(#clip0_4027_13786)">
<path d="M11.8323 10.0156L19.6199 2.22773C20.1267 1.72116 20.1267 0.902117 19.6199 0.39555C19.1134 -0.111017 18.2943 -0.111017 17.7878 0.39555L9.9999 8.18339L2.21229 0.39555C1.70548 -0.111017 0.886671 -0.111017 0.380103 0.39555C-0.126701 0.902117 -0.126701 1.72116 0.380103 2.22773L8.16772 10.0156L0.380103 17.8034C-0.126701 18.31 -0.126701 19.129 0.380103 19.6356C0.632557 19.8883 0.964495 20.0152 1.2962 20.0152C1.6279 20.0152 1.9596 19.8883 2.21229 19.6356L9.9999 11.8478L17.7878 19.6356C18.0404 19.8883 18.3721 20.0152 18.7038 20.0152C19.0355 20.0152 19.3672 19.8883 19.6199 19.6356C20.1267 19.129 20.1267 18.31 19.6199 17.8034L11.8323 10.0156Z" fill="white"/>
</g>
<defs>
<clipPath id="clip0_4027_13786">
<rect width="20" height="20" fill="white"/>
</clipPath>
</defs>
</svg>

<svg width="20" height="20" fill="none" xmlns="http://www.w3.org/2000/svg"><g clip-path="url(#clip0_4027_13786)"><path d="M11.832 10.016l7.788-7.788a1.294 1.294 0 000-1.832 1.294 1.294 0 00-1.832 0L10 8.183 2.212.396A1.294 1.294 0 10.38 2.228l7.788 7.788L.38 17.803a1.294 1.294 0 00.916 2.212c.332 0 .664-.127.916-.38L10 11.849l7.788 7.788a1.292 1.292 0 001.832 0 1.294 1.294 0 000-1.833l-7.788-7.787z" fill="#fff"/></g><defs><clipPath id="clip0_4027_13786"><path fill="#fff" d="M0 0h20v20H0z"/></clipPath></defs></svg>
